X: 25708
T: Mary Bravender
R: reel
M: 4/4
K: Eminor
A2JB2d4-|d6z2|zAJB4de|JB2BGA4-|A4{c}A-^G-G2|B6de|z2B6|
z2G2A4-|A3-!>!A2zG2-|G8-|G8|z6JB2-|B2d6-|d3z4JB-|B3deB3-|B{G}A4-A3-|
A3B/A/G4|B6de|z2JB6-|BzG2A4-|A4G4-|GJG4-G3-|G4z4|
z3JG2B<dJg|-g2f dJe4-|ef2d{ef}ed3-|d4z2B2-|Bd2e3-e2|
fz ~e3/2{a}e/ dAJBd-|d8-|dz3Jg4|fd{a}edBJA3-|!>!A4G4|Bde2zJa3-|a3{c'}afdJe2-|
e{a}ed6|z6JB2-|B2d2JB4-|B2z2B4-|B2deB4|GA4-!>!A3-|G4B4-|
B2dezJB3-|B4z2GA-|!>!A6G2-|G8-|G2z6|JG4JB4-|B4z2JG2-|G3JB3-B2|G8|

